X:484
T:Siege of Delhi
M:4/4
L:1/8
K:G
B3 B B2 d2 | d2 e>B d4 | B3 B B2 d2 | e>g d>B A2 G2 | 
B3 B B2 d2 | d2 e>B d4 | d2 g>e d>e d>B | A2 G2 G4 :|| 
B2 d>B d>B d2 | c2 e>c e>c e2 | B2 d>B d>B d2 | e>g d>B A2 G2 | 
B2 d>B d>B d2 | c2 e>c e>c e2 | d2 g>e d>e d>B | A2 G2 G4 :|| 
B3 B B2 d2 | c3 c c2 e2 | B3 B B2 d2 | e>g d>B A2 G2 | 
B3 B B2 d2 | c3 c c2 e2 | d2 g>e d>e d>B | A2 G2 G4 :|| 
g>f g>e d>e d>B | G2 G>A B4 | B3 B B2 d2 | e>g d>B A2 G2 | 
g>f g>e d>e d>B | G2 G>A B4 | d2 g>e d>e d>B | A2 G2 G4 :|| 

